!!!!SEGMENT: pl-sa--63-a-ii-3--001-003_neumann--sinfonia-in-g-menuett.krn
!!!cenid: 17xx:1824a
!!!COM: Neumann
!!!COM-rismID: pe30002337
!!!CDT:
!!!CNT:
!!!OPR: Sinfonia in G
!!!OTL: Menuett
!!!OMV: 003
!!!PDT:
!!!AGN: Secular
!!!SMS-siglum: PL-SA
!!!SMS-shelfmark: 63/A II 3
!!!SMS-shelfwork: 001-003 M
!!!SMS-variant:
!!!SMS-altvar:
!!!NIFC-rismSourceID: 1001034986
!!!NIFC-rismChildID: 1001034986
!!!NIFC-islandoraID: none
!!!URL-pdf-islandora:
!!!URL-scan: https://bc.bdsandomierz.pl/dlibra/publication/1342/edition/1310/content @EN{Scan in the Sandomierz Diocese Digital Library} @PL{Skany w portalu Cyfrowa Biblioteka Diecezjalna w Sandomierzu}
!!!ONB-nifc: UWAGA: części Sinfonii: 1. Allegro, 2. Andante, 3. Menuett, 4. Presto
!!!AIN: 1 cbass 2 cor 2 oboe 1 viola 2 violn
!!!key: G
**kern	**dynam	**kern	**dynam	**kern	**dynam	**kern	**dynam	**kern	**kern	**kern	**kern	**dynam
*group3	*	*group3	*	*group3	*	*group3	*	*group2	*group2	*group1	*group1	*
*part8	*part8	*part7	*part7	*part6	*part6	*part5	*part5	*part4	*part3	*part2	*part1	*part1
*staff8	*	*staff7	*	*staff6	*	*staff5	*	*staff4	*staff3	*staff2	*staff1	*
*I"Baſso:	*	*I"Viola:	*	*I"Violino: Secondo:	*	*I"Violino: Primo:	*	*I"Cornu Secndo: in g:	*I"Cornu: Primo: in g:	*I"Oboe Secondo:	*I"Oboe: Primo:	*
*I'[Cb]	*	*I'[Vla]	*	*I'[Vl 2]	*	*I'[Vl 1]	*	*I'[Cor 2]	*I'[Cor 1]	*I'[Ob 2]	*I'[Ob 1]	*
*Icbass	*	*Iviola	*	*Ivioln	*	*Ivioln	*	*Icor	*Icor	*Ioboe	*Ioboe	*
*ICstr	*	*ICstr	*	*ICstr	*	*ICstr	*	*ICbras	*ICbras	*ICww	*ICww	*
*clefF4	*	*clefC3	*	*clefG2	*	*clefG2	*	*clefG2	*clefG2	*clefG2	*clefG2	*
*	*	*	*	*	*	*	*	*ITrd3c5	*ITrd3c5	*	*	*
*k[f#]	*	*k[f#]	*	*k[f#]	*	*k[f#]	*	*k[f#]	*k[f#]	*k[f#]	*k[f#]	*
*G:	*	*G:	*	*G:	*	*G:	*	*G:	*G:	*G:	*G:	*
*M3/4	*	*M3/4	*	*M3/4	*	*M3/4	*	*M3/4	*M3/4	*M3/4	*M3/4	*
*>[A,A,B,B,C,C,D,D]	*	*>[A,A,B,B,C,C,D,D]	*	*>[A,A,B,B,C,C,D,D]	*	*>[A,A,B,B,C,C,D,D]	*	*>[A,A,B,B,C,C,D,D]	*>[A,A,B,B,C,C,D,D]	*>[A,A,B,B,C,C,D,D]	*>[A,A,B,B,C,C,D,D]	*
=1	=1	=1	=1	=1	=1	=1	=1	=1	=1	=1	=1	=1
*>A	*	*>A	*	*>A	*	*>A	*	*>A	*>A	*>A	*>A	*
*2\right	*	*	*	*	*	*	*	*	*2\right	*2\right	*	*
!	!	!	!	!	!	!	!	!	!	!LO:SIC:s:v=b	!	!
!	!	!	!	!LO:TX:t=P:problem=all\right&colon; global	!	!	!	!	!	!LO:TX:t=P:problem=all\right&colon; global	!LO:TX:t=P:problem=all\right&colon; global	!
!LO:TX:a:t=Menuetto&colon;	!	!	!	!LO:TX:a:t=Moderato&colon;	!	!	!	!	!LO:TX:t=P:problem=all\right&colon; global	!LO:TX:b:t=Moderato&colon;	!LO:TX:a:t=Monuetto&colon;	!
!LO:TX:a:t=Moderato&colon;	!	!LO:TX:a:t=Moderato&colon; Menuetto&colon;	!	!LO:TX:a:t=Menuet&colon;	!	!LO:TX:t=P:problem=all\right&colon; global	!LO:DY:t=for&colon;	!LO:TX:b:t=Menut&colon;	!LO:TX:a:t=Menutto&colon;	!LO:TX:b:t=Menuett	!LO:TX:a:t=Moderato&colon;	!
2G\	.	2G/	.	4d\ 4b\ 4gg\	.	4d\ 4b\ 4gg\	f	2B/	2g\	2a\	4gg\	.
.	.	.	.	4dd\	.	4dd\	.	.	.	.	4dd\	.
*	*	*	*	*	*	*	*	*	*	*Xtuplet	*Xtuplet	*
!	!	!	!	!LO:TUP:a:problem=klamra łukowa	!	!LO:TUP:a:problem=klamra łukowa	!	!	!	!LO:TUP:a:problem=klamra łukowa	!LO:TUP:a:problem=klamra łukowa	!
4r	.	4r	.	12cc\L	.	12ee\L	.	4r	4r	12cc\L	12ee\L	.
.	.	.	.	12b\	.	12dd\	.	.	.	12b\	12dd\	.
.	.	.	.	12a\J	.	12cc\J	.	.	.	12a\J	12cc\J	.
=2	=2	=2	=2	=2	=2	=2	=2	=2	=2	=2	=2	=2
*	*	*	*	*	*	*2\right	*	*	*	*	*2\right	*
!	!	!LO:TX:t=P:problem=all\right&colon; global	!	!	!	!	!	!	!	!	!	!
!	!	!LO:TUP:a:problem=klamra łukowa	!	!	!	!	!	!	!	!	!	!
4A\	.	12f#\L	.	(<2a/	.	(>2cc\	.	4r	4r	2a/	2cc\	.
.	.	12e\	.	.	.	.	.	.	.	.	.	.
.	.	12d\J	.	.	.	.	.	.	.	.	.	.
4F#\	.	2d\	.	.	.	.	.	4d/	4a\	.	.	.
!	!	!	!	!	!	!	!	!LO:TX:t=P:problem=all\right&colon; global	!	!	!	!
4G\	.	.	.	4g/)	.	4b\)	.	4g\	4b\	4g/	4b\	.
=3	=3	=3	=3	=3	=3	=3	=3	=3	=3	=3	=3	=3
4C/	.	4c\	.	4ee\	.	4ee\	.	4G/	4g\	2g/	2ee\	.
!	!	!	!	!LO:TUP:a:problem=klamra łukowa	!	!LO:TUP:a:problem=klamra łukowa	!	!	!	!	!	!
4r	.	4r	.	12ee\L	.	12ee\L	.	4r	4r	.	.	.
.	.	.	.	12ff#\	.	12ff#\	.	.	.	.	.	.
.	.	.	.	12gg\J	.	12gg\J	.	.	.	.	.	.
!	!	!	!	!LO:TUP:a:problem=klamra łukowa	!	!LO:TUP:a:problem=klamra łukowa	!	!	!	!	!	!
4r	.	4r	.	12aa\L	.	12aa\L	.	4r	4r	4r	4r	.
.	.	.	.	12bb\	.	12bb\	.	.	.	.	.	.
.	.	.	.	12ccc\J	.	12ccc\J	.	.	.	.	.	.
=4	=4	=4	=4	=4	=4	=4	=4	=4	=4	=4	=4	=4
4D\	.	4b\	.	(>4gg\	.	(>4gg\	.	4r	4r	4b\	4gg\	.
8d\L	.	(>4a\	.	4ff#\	.	4ff#\	.	4d/	4a\	4a\	4ff#\	.
8c\	.	.	.	.	.	.	.	.	.	.	.	.
8B\	.	4b\)	.	4gg\)	.	4gg\)	.	4B/	4g\	4b\	4gg\	.
8A\J	.	.	.	.	.	.	.	.	.	.	.	.
=5	=5	=5	=5	=5	=5	=5	=5	=5	=5	=5	=5	=5
!	!LO:DY:t=p&colon;	!	!	!	!	!	!	!	!	!	!	!
4B\	p	4G\ 4g\	.	4d\ 4b\ 4gg\	.	4d\ 4b\ 4gg\	.	4g\	4b\	2b\	4gg\	.
!	!	!	!LO:DY:t=p&colon;	!	!LO:DY:rj:t=p&colon;	!	!LO:DY:rj	!	!	!	!	!
4G\	.	4b\	p	4dd\	p	4dd\	p	4r	4r	.	4dd\	.
4G\	.	4g\	.	8bb\L	.	8bb\L	.	4r	4r	4r	4r	.
.	.	.	.	8dd\J	.	8dd\J	.	.	.	.	.	.
=6	=6	=6	=6	=6	=6	=6	=6	=6	=6	=6	=6	=6
!	!	!	!	!	!	!	!	!LO:TX:a:t=1	!LO:TX:a:t=1	!LO:TX:a:t=1	!LO:TX:a:t=1	!
!	!	!	!	!	!	!LO:TX:a:t=|:problem	!	!	!	!	!	!
4A\	.	4a\	.	8dd\L	.	8dd\L	.	2.r	2.r	2.r	2.r	.
!	!	!	!	!	!	!LO:TX:a:t=|:problem	!	!	!	!	!	!
.	.	.	.	8cc\	.	8cc\	.	.	.	.	.	.
!	!	!	!	!LO:SIC:v:s:t=8ff#\	!	!LO:TX:a:t=|:problem	!	!	!	!	!	!
4F#\	.	4f#\	.	8gg\	.	8aa\	.	.	.	.	.	.
!	!	!	!	!	!	!LO:TX:a:t=|:problem	!	!	!	!	!	!
.	.	.	.	8cc\J	.	8cc\J	.	.	.	.	.	.
4G\	.	4g\	.	4b\	.	4b\	.	.	.	.	.	.
!	!	!	!	!LO:LB:g=original	!	!LO:LB:g=original	!	!	!	!	!	!
=7	=7	=7	=7	=7	=7	=7	=7	=7	=7	=7	=7	=7
*	*	*	*	*Xtuplet	*	*Xtuplet	*	*	*	*	*	*
!	!	!	!LO:DY:rj:t=for	!LO:TUP:a:problem=klamra łukowa	!LO:DY:rj:t=for&colon;	!LO:TUP:a:problem=klamra łukowa	!LO:DY:rj:t=for&colon;	!	!	!	!	!
4C/	.	4g\	f	12ee\L	f	12ee\L	f	4G/	4g\	4cc\	4ee\	.
.	.	.	.	12gg\	.	12gg\	.	.	.	.	.	.
.	.	.	.	12ff#\J	.	12ff#\J	.	.	.	.	.	.
*	*	*	*	*tuplet	*	*	*	*	*	*	*	*
!	!	!	!	!LO:TUP:a:problem=klamra łukowa	!	!LO:TUP:a:problem=klamra łukowa	!	!	!	!	!	!
4r	.	4r	.	12ee\L	.	12ee\L	.	4r	4r	4r	4r	.
.	.	.	.	12dd\	.	12dd\	.	.	.	.	.	.
.	.	.	.	12cc\J	.	12cc\J	.	.	.	.	.	.
*	*	*	*	*Xtuplet	*	*	*	*	*	*	*	*
!	!	!	!	!	!	!LO:TUP:a:problem=klamra łukowa	!	!	!	!	!	!
4C/	.	4e\	.	12b\L	.	12b\L	.	4r	4r	4r	4ee\	.
.	.	.	.	12a\	.	12a\	.	.	.	.	.	.
.	.	.	.	12ee\J	.	12ee\J	.	.	.	.	.	.
!LO:LB:g=original	!	!LO:LB:g=original	!	!	!	!	!	!	!	!	!	!
=8	=8	=8	=8	=8	=8	=8	=8	=8	=8	=8	=8	=8
*	*	*2\right	*	*	*	*	*	*	*	*	*	*
!	!	!	!	!	!	!	!	!	!	!LO:TX:a:t=8	!	!
4D/	.	2d\	.	2B/	.	2g/	.	2B/	2g\	2.d/	2g/	.
4d\	.	.	.	.	.	.	.	.	.	.	.	.
!LO:TX:a:t=8	!	!LO:TX:a:t=8	!	!LO:TX:a:t=8	!	!LO:TX:a:t=8	!	!LO:TX:a:t=8&colon;	!LO:TX:a:t=8&colon;	!	!LO:TX:a:t=8&colon;	!
4D/	.	4r	.	4A/	.	4f#/	.	4d/	4a\	.	4f#/	.
!	!	!	!	!	!	!	!	!LO:LB:g=original	!LO:LB:g=original	!	!	!
=9:|!|:	=9:|!|:	=9:|!|:	=9:|!|:	=9:|!|:	=9:|!|:	=9:|!|:	=9:|!|:	=9:|!|:	=9:|!|:	=9:|!|:	=9:|!|:	=9:|!|:
*>B	*	*>B	*	*>B	*	*>B	*	*>B	*>B	*>B	*>B	*
!	!LO:DY:rj:t=p&colon;	!	!	!	!	!	!	!	!	!	!LO:TX:a:t=8&colon;:rj	!
4D\	p	4d\	.	12d/L	.	2d/ 2dd/	.	2D/	2d/	2f#/	2.dd\	.
.	.	.	.	12f#/	.	.	.	.	.	.	.	.
.	.	.	.	12a/J	.	.	.	.	.	.	.	.
4D\	.	4d\	.	12d/L	.	.	.	.	.	.	.	.
.	.	.	.	12f#/	.	.	.	.	.	.	.	.
.	.	.	.	12a/J	.	.	.	.	.	.	.	.
4D\	.	4r	.	12dd\L	.	8ccc\L	p	4r	4r	4r	.	.
.	.	.	.	12aa\	.	.	.	.	.	.	.	.
.	.	.	.	.	.	8bb\J	.	.	.	.	.	.
.	.	.	.	12gg\J	.	.	.	.	.	.	.	.
=10	=10	=10	=10	=10	=10	=10	=10	=10	=10	=10	=10	=10
*	*	*Xtuplet	*	*2\right	*	*	*	*	*	*	*	*
!	!	!	!LO:DY:rj:t=p&colon;	!	!	!	!	!LO:TX:a:t=1	!LO:TX:a:t=1	!LO:TX:a:t=1	!	!
4D\	.	12d\L	p	2gg\	.	(>2bb\	.	2.r	2.r	2.r	2.dd\	.
.	.	12g\	.	.	.	.	.	.	.	.	.	.
.	.	12b\J	.	.	.	.	.	.	.	.	.	.
4D\	.	12d\L	.	.	.	.	.	.	.	.	.	.
.	.	12g\	.	.	.	.	.	.	.	.	.	.
.	.	12b\J	.	.	.	.	.	.	.	.	.	.
4D\	.	12d\L	.	4ff#\	.	4aa\)	.	.	.	.	.	.
.	.	12f#\	.	.	.	.	.	.	.	.	.	.
.	.	12a\J	.	.	.	.	.	.	.	.	.	.
=11	=11	=11	=11	=11	=11	=11	=11	=11	=11	=11	=11	=11
!	!LO:DY:rj:t=p&colon;	!	!LO:DY:rj:t=for	!	!LO:DY:rj	!	!LO:DY:rj	!	!	!	!	!
4D\	p	4dd\	f	12d/L	f	2d/ 2dd/	f	2D/	2d/	2d/	2.dd\	.
.	.	.	.	12g/	.	.	.	.	.	.	.	.
.	.	.	.	12b/J	.	.	.	.	.	.	.	.
4D\	.	4d\	.	12d/L	.	.	.	.	.	.	.	.
.	.	.	.	12g/	.	.	.	.	.	.	.	.
.	.	.	.	12b/J	.	.	.	.	.	.	.	.
!	!	!	!	!	!LO:DY:rj:t=p&colon;	!	!LO:DY:t=p&colon;	!	!	!	!	!
4D\	.	4r	.	12dd\L	p	8ddd\L	p	4r	4r	4r	.	.
.	.	.	.	12bb\	.	.	.	.	.	.	.	.
.	.	.	.	.	.	8ccc\J	.	.	.	.	.	.
.	.	.	.	12aa\J	.	.	.	.	.	.	.	.
!	!	!	!	!LO:LB:g=original	!	!LO:LB:g=original	!	!	!	!	!	!
=12	=12	=12	=12	=12	=12	=12	=12	=12	=12	=12	=12	=12
!	!	!	!LO:DY:rj	!	!	!	!	!LO:TX:a:t=1	!LO:TX:a:t=1	!LO:TX:a:t=1	!	!
4D\	.	12d\L	p	2aa\	.	(>2ccc\	.	2.r	2.r	2.r	2.dd\	f
.	.	12f#\	.	.	.	.	.	.	.	.	.	.
.	.	12a\J	.	.	.	.	.	.	.	.	.	.
4D\	.	12d\L	.	.	.	.	.	.	.	.	.	.
.	.	12f#\	.	.	.	.	.	.	.	.	.	.
.	.	12a\J	.	.	.	.	.	.	.	.	.	.
!!mixed beam:problem
!	!	!LO:TX:t=P:problem=mixed beam	!	!	!	!	!	!	!	!	!	!
4G\	.	12G/L	.	4gg\	.	4bb\)	.	.	.	.	.	.
.	.	12g\	.	.	.	.	.	.	.	.	.	.
.	.	12b\J	.	.	.	.	.	.	.	.	.	.
!	!	!LO:LB:g=original	!	!	!	!	!	!	!	!	!	!
=13	=13	=13	=13	=13	=13	=13	=13	=13	=13	=13	=13	=13
!	!LO:DY:rj	!	!LO:DY:rj:t=for	!	!LO:DY:rj:t=for	!	!LO:DY:rj:t=for	!	!	!	!	!
8GG/L	f	8G/L	f	4d\ 4b\ 4gg\	f	4d\ 4b\ 4gg\	f	2B/	2g\	2b\	4gg\	.
8AA/J	.	8A/J	.	.	.	.	.	.	.	.	.	.
!	!LO:DY:t=p&colon;	!	!LO:DY:t=p&colon;	!	!	!	!	!	!	!	!	!
4BB/	p	4B/	p	4dd\	p	4b\	p	.	.	.	4dd\	.
!LO:N:vis=8	!	!	!	!	!	!	!	!	!	!	!	!
4G\	.	4g\	.	8bb\L	.	8bb\L	.	4r	4r	4r	4r	.
.	.	.	.	8dd\J	.	8dd\J	.	.	.	.	.	.
!	!	!	!	!	!	!	!	!	!	!	!LO:LB:g=original	!
=14	=14	=14	=14	=14	=14	=14	=14	=14	=14	=14	=14	=14
!	!	!	!	!	!	!	!	!LO:TX:a:t=1	!LO:TX:a:t=1	!	!	!
4A\	.	4a\	.	8dd\L	.	8dd\L	.	2.r	2.r	4r	4r	.
.	.	.	.	8cc\	.	8cc\	.	.	.	.	.	.
4F#\	.	4f#\	.	8aa\	.	8aa\	.	.	.	4a/	4cc\	.
.	.	.	.	8cc\J	.	8cc\J	.	.	.	.	.	.
.	.	.	.	8qqcc/	.	8qqcc/	.	.	.	.	.	.
4G\	.	4g\	.	4b\	.	4b\	f	.	.	4g/	4b\	.
!LO:LB:g=original	!	!	!	!	!	!	!	!	!	!	!	!
=15	=15	=15	=15	=15	=15	=15	=15	=15	=15	=15	=15	=15
!	!	!	!LO:DY:rj:t=f&colon;	!	!LO:DY:rj:t=for&colon;	!	!	!	!	!	!	!LO:DY:t=for
4B\	.	12G/L	f	4d\ 4b\ 4gg\	f	4d\ 4b\ 4gg\	.	4B/	4g\	2.dd\	2.gg\	f
.	.	12B/	.	.	.	.	.	.	.	.	.	.
.	.	12d/J	.	.	.	.	.	.	.	.	.	.
4B\	.	12B\L	.	4dd\	.	4dd\	.	4r	4r	.	.	.
.	.	12d\	.	.	.	.	.	.	.	.	.	.
.	.	12g\J	.	.	.	.	.	.	.	.	.	.
*	*	*	*	*	*	*	*	*	*Xtuplet	*	*	*
!!mixed beam:problem
!	!	!	!	!	!	!	!	!LO:TX:t=P:problem=mixed beam	!	!	!	!
4B\	.	12d\L	.	4ddd\	.	4ddd\	.	8B/L	12g\L	.	.	.
.	.	12g\	.	.	.	.	.	.	12a\	.	.	.
.	.	.	.	.	.	.	.	8g\J	.	.	.	.
.	.	12b\J	.	.	.	.	.	.	12b\J	.	.	.
=16	=16	=16	=16	=16	=16	=16	=16	=16	=16	=16	=16	=16
*	*	*	*	*tuplet	*	*	*	*	*	*	*	*
!	!	!	!	!LO:TUP:a:problem=klamra łukowa	!	!LO:TUP:a:problem=klamra łukowa	!	!	!	!	!	!
4F#\	.	4a\	.	12ccc\L	.	12ccc\L	.	4d/	4a\	4dd\	4aa\	.
.	.	.	.	12bb\	.	12bb\	.	.	.	.	.	.
.	.	.	.	12aa\J	.	12aa\J	.	.	.	.	.	.
*	*	*	*	*Xtuplet	*	*	*	*	*	*	*	*
4r	.	4r	.	12gg\L	.	12gg'>\L	.	4r	4r	4r	4r	.
.	.	.	.	12ff#\	.	12ff#'>\	.	.	.	.	.	.
.	.	.	.	12ee\J	.	12ee'>\J	.	.	.	.	.	.
!	!	!	!	!	!	!LO:TUP:a:problem=klamra łukowa	!	!	!	!	!	!
4r	.	4r	.	12dd\L	.	12dd\L	.	4r	4r	4r	4r	.
.	.	.	.	12ee\	.	12ee\	.	.	.	.	.	.
.	.	.	.	12cc\J	.	12cc\J	.	.	.	.	.	.
!	!	!	!	!	!	!LO:LB:g=original	!	!	!LO:LB:g=original	!	!	!
=17	=17	=17	=17	=17	=17	=17	=17	=17	=17	=17	=17	=17
*	*	*^	*	*^	*	*	*	*	*	*	*	*
4G\	.	4e\	4ryy	.	4b\	4ryy	.	8.b\L	.	4B/	4g\	4b\	2.dd\	.
.	.	.	.	.	.	.	.	16dd\Jk	.	.	.	.	.	.
4F#\	.	2d/	2c\	.	2d/	2c\	.	(>8.bb\L	.	4r	4r	2cc\	.	.
.	.	.	.	.	.	.	.	16aa\Jk)	.	.	.	.	.	.
4A\	.	.	.	.	.	.	.	(>16ff#\KL	.	8r	8r	.	.	.
.	.	.	.	.	.	.	.	8.cc\J)	.	.	.	.	.	.
.	.	.	.	.	.	.	.	.	.	8d/	8a\	.	.	.
*	*	*v	*v	*	*	*	*	*	*	*	*	*	*	*
!	!	!LO:LB:g=original	!	!LO:LB:g=original	!	!	!	!	!	!	!	!	!
=18	=18	=18	=18	=18	=18	=18	=18	=18	=18	=18	=18	=18	=18
4G\	.	4d\	.	4d/	4rFyy	.	8.b\L	.	4g\	4b\	4b\	2.dd\	.
.	.	.	.	.	.	.	16gg\Jk	.	.	.	.	.	.
4F#\	.	2d\	.	2d/	2c\	.	16bb\KL	.	4r	4r	2cc\	.	.
.	.	.	.	.	.	.	8.aa\J	.	.	.	.	.	.
4A\	.	.	.	.	.	.	16ff#\KL	.	4r	4r	.	.	.
.	.	.	.	.	.	.	8.cc\J	.	.	.	.	.	.
*	*	*	*	*v	*v	*	*	*	*	*	*	*	*
!	!	!	!	!	!	!	!	!LO:LB:g=original	!	!	!	!
=19	=19	=19	=19	=19	=19	=19	=19	=19	=19	=19	=19	=19
4G\	.	4d\	.	12b\L	.	12b\L	.	4g\	4b\	4b\	4dd\	.
.	.	.	.	12dd\	.	12dd\	.	.	.	.	.	.
.	.	.	.	12gg\J	.	12gg\J	.	.	.	.	.	.
4C/	.	4e\	.	4a\	.	4a/	.	4g\	2a\	4a/	4cc\	.
4D\	.	4d\	.	4ff#\	.	4ff#\	.	4d/	.	4f#/	4b\	.
!	!	!	!	!	!	!	!	!	!	!LO:LB:g=original	!	!
=20	=20	=20	=20	=20	=20	=20	=20	=20	=20	=20	=20	=20
*	*	*	*	*^	*	*	*	*	*	*	*	*
!	!LO:DY:rj:t=p&colon;	!	!LO:DY:rj:t=p&colon;	!	!	!	!	!LO:DY:rj:t=p&colon;	!LO:TX:a:t=2	!LO:TX:a:t=2	!LO:TX:a:t=2	!	!LO:DY:rj
(>4G\	p	12d\L	p	4d/	4B\	.	8.B/L	p	1.r	1.r	1.r	2.dd\	p
.	.	12d\	.	.	.	.	.	.	.	.	.	.	.
.	.	12d\J	.	.	.	.	.	.	.	.	.	.	.
.	.	.	.	.	.	.	16g/Jk	.	.	.	.	.	.
4F#\)	.	12d\L	.	2d/	2c\	.	16b/KL	.	.	.	.	.	.
.	.	.	.	.	.	.	8.a/J	.	.	.	.	.	.
.	.	12d\	.	.	.	.	.	.	.	.	.	.	.
.	.	12d\J	.	.	.	.	.	.	.	.	.	.	.
4r	.	12d\L	.	.	.	.	16f#/KL	.	.	.	.	.	.
.	.	.	.	.	.	.	8.c/J	.	.	.	.	.	.
.	.	12d\	.	.	.	.	.	.	.	.	.	.	.
.	.	12d\J	.	.	.	.	.	.	.	.	.	.	.
!	!	!	!	!	!	!	!LO:LB:g=original	!	!	!	!	!	!
=21	=21	=21	=21	=21	=21	=21	=21	=21	=21-	=21-	=21-	=21	=21
(>4G\	.	12d\L	.	12d/L	12B\L	.	8.B/L	.	.	.	.	2.dd\	.
.	.	12d\	.	12d/	12B\	.	.	.	.	.	.	.	.
.	.	12d\J	.	12d/J	12B\J	.	.	.	.	.	.	.	.
.	.	.	.	.	.	.	16g/Jk	.	.	.	.	.	.
4F#\)	.	12d\L	.	12d/L	12B\L	.	16b/KL	.	.	.	.	.	.
.	.	.	.	.	.	.	8.a/J	.	.	.	.	.	.
.	.	12d\	.	12d/	12B\	.	.	.	.	.	.	.	.
.	.	12d\J	.	12d/J	12B\J	.	.	.	.	.	.	.	.
4r	.	12d\L	.	12d/L	12B\L	.	16f#/KL	.	.	.	.	.	.
.	.	.	.	.	.	.	8.c/J	.	.	.	.	.	.
.	.	12d\	.	12d/	12B\	.	.	.	.	.	.	.	.
.	.	12d\J	.	12d/J	12B\J	.	.	.	.	.	.	.	.
*	*	*	*	*v	*v	*	*	*	*	*	*	*	*
=22	=22	=22	=22	=22	=22	=22	=22	=22	=22	=22	=22	=22
!	!	!	!	!	!LO:DY:rj:t=for&colon;	!	!LO:DY:rj:t=for	!LO:TUP:a:problem=klamra łukowa	!LO:TUP:a:problem=klamra łukowa	!	!	!
4GG/	.	4d\	.	12B/L	f	12B/L	f	12b\L	12dd\L	4b\	4dd\	.
.	.	.	.	12d/	.	12d/	.	12a\	12cc\	.	.	.
.	.	.	.	12g/J	.	12g/J	.	12g\J	12b\J	.	.	.
4C/	.	4e\	.	4A/	.	4A/	.	8g\L	2a\	4cc\	4ee\	.
.	.	.	.	.	.	.	.	8d\	.	.	.	.
4D/	.	4d\	.	4d\ 4a\ 4ff#\	.	4d\ 4a\ 4ff#\	.	8d\	.	4a\	4ff#\	.
.	.	.	.	.	.	.	.	8d\J	.	.	.	.
!LO:LB:g=original	!	!LO:LB:g=original	!	!LO:LB:g=original	!	!	!	!	!	!	!	!
=23	=23	=23	=23	=23	=23	=23	=23	=23	=23	=23	=23	=23
!	!LO:DY:t=for	!	!	!	!	!	!	!LO:TUP:a:problem=klamra łukowa	!	!	!	!
4r	f	4d\	.	12B/L	.	12B/L	.	12b\L	12dd\L	4b\	4dd\	.
.	.	.	.	12d/	.	12d/	.	12a\	12cc\	.	.	.
.	.	.	.	12g/J	.	12g/J	.	12g\J	12b\J	.	.	.
4C/	.	4e\	.	4A/	.	4A/	.	8g\L	2a\	4cc\	4ee\	.
.	.	.	.	.	.	.	.	8d\	.	.	.	.
4D/	.	4d\	.	4d\ 4a\ 4ff#\	.	4d\ 4a\ 4ff#\	.	8d\	.	4a\	4ff#\	.
.	.	.	.	.	.	.	.	8d\J	.	.	.	.
=24	=24	=24	=24	=24	=24	=24	=24	=24	=24	=24	=24	=24
!	!	!	!	!	!	!	!	!	!	!LO:TX:a:t=16	!	!
4G\	.	2d\	.	2G/ 2d/ 2b/ 2gg/	.	2G/ 2d/ 2b/ 2gg/	.	2B/	2g\	2.b\	2gg\	.
4D\	.	.	.	.	.	.	.	.	.	.	.	.
!LO:TX:a:t=16&colon;	!	!LO:TX:a:t=16&colon;	!	!LO:TX:a:t=16&colon;	!	!LO:TX:a:t=16&colon;	!	!LO:TX:a:t=16	!	!	!LO:TX:a:t=16	!
4GG/	.	4r	.	4r	.	4r	.	4r	4r	.	4r	.
!LO:LB:g=original	!	!LO:LB:g=original	!	!LO:LB:g=original	!	!LO:LB:g=original	!	!	!	!	!	!
=25:|!|:	=25:|!|:	=25:|!|:	=25:|!|:	=25:|!|:	=25:|!|:	=25||;;	=25:|!|:	=25:|!|:;;	=25:|!|:;;	=25:|!|:;;	=25:|!|:;;	=25:|!|:
*>C	*	*>C	*	*>C	*	*>C	*	*>C	*>C	*>C	*>C	*
*M3/4	*	*M3/4	*	*M3/4	*	*M3/4	*	*M3/4	*M3/4	*M3/4	*M3/4	*
!LO:TX:a:t=1	!	!LO:TX:b:t=pizzicato&colon;	!	!	!	!LO:TX:a:t=1	!	!	!	!	!	!
!LO:TX:b:t=Trio&colon;	!	!LO:TX:a:t=Trio&colon;	!	!LO:TX:a:t=Trio&colon;\nPizzicato&colon;	!	!LO:TX:a:t=Trio&colon;	!	!LO:TX:a:t=Trio&colon; Tacet&colon;\nMenu Da Capo&colon;\nV&colon; L&colon;	!LO:TX:a:t=Trio&colon; Tacet&colon;\nMen Da Capo&colon;\nV&colon; L&colon;	!LO:TX:a:t=Trio Tacet\nM D&colon; V&colon; L&colon;	!LO:TX:a:t=Trio Tacet&colon;\nMenu Da Capo	!
2.r	.	4.g\	.	4.b\	.	2.r	.	2.ryy	2.ryy	2.ryy	2.ryy	.
.	.	8a\	.	8cc\	.	.	.	.	.	.	.	.
.	.	4g\	.	4b\	.	.	.	.	.	.	.	.
=26	=26	=26	=26	=26	=26	=26	=26	=26	=26	=26	=26	=26
!	!	!	!	!	!	!	!LO:DY:rj:t=for	!	!	!	!	!
4r	.	4f#\	.	4a/	.	4r	f	2.ryy	2.ryy	2.ryy	2.ryy	.
8.A\L	.	4r	.	4r	.	8.a/L	.	.	.	.	.	.
16G\K	.	.	.	.	.	16g/K	.	.	.	.	.	.
8.F#\	.	4r	.	4r	.	8.f#/	.	.	.	.	.	.
16E\Jk	.	.	.	.	.	16e/Jk	.	.	.	.	.	.
=27	=27	=27	=27	=27	=27	=27	=27	=27	=27	=27	=27	=27
4D#X\	.	4r	.	4r	.	4d#X/	.	2.ryy	2.ryy	2.ryy	2.ryy	.
4r	.	4a\	.	4ff#\	.	4r	.	.	.	.	.	.
4r	.	4f#\	.	4a/	.	4r	.	.	.	.	.	.
=28	=28	=28	=28	=28	=28	=28	=28	=28	=28	=28	=28	=28
4r	.	4e\	.	4g/	.	4r	.	2.ryy	2.ryy	2.ryy	2.ryy	.
8.B\L	.	4r	.	4r	.	8.b/L	.	.	.	.	.	.
16A\K	.	.	.	.	.	16a/K	.	.	.	.	.	.
8.G\	.	4r	.	4r	.	8.g/	.	.	.	.	.	.
16F#\Jk	.	.	.	.	.	16f#/Jk	.	.	.	.	.	.
=29	=29	=29	=29	=29	=29	=29	=29	=29	=29	=29	=29	=29
4E\	.	4r	.	4r	.	4e/	.	2.ryy	2.ryy	2.ryy	2.ryy	.
4r	.	4e\	.	4cc\	.	4r	.	.	.	.	.	.
4r	.	4f#\	.	4cc\	.	4r	.	.	.	.	.	.
!LO:LB:g=original	!	!	!	!	!	!	!	!	!	!	!	!
=30	=30	=30	=30	=30	=30	=30	=30	=30	=30	=30	=30	=30
4r	.	4g\	.	8cc\L	.	4r	.	2.ryy	2.ryy	2.ryy	2.ryy	.
.	.	.	.	8b\J	.	.	.	.	.	.	.	.
4r	.	4d\	.	4b\	.	4r	.	.	.	.	.	.
16G\LL	.	4r	.	4r	.	16g/LL	.	.	.	.	.	.
16F#\	.	.	.	.	.	16f#/	.	.	.	.	.	.
16E\	.	.	.	.	.	16e/	.	.	.	.	.	.
16D\JJ	.	.	.	.	.	16d/JJ	.	.	.	.	.	.
!	!	!LO:LB:g=original	!	!LO:LB:g=original	!	!LO:LB:g=original	!	!	!	!	!	!
=31	=31	=31	=31	=31	=31	=31	=31	=31	=31	=31	=31	=31
4C/	.	4r	.	4r	.	4c/	.	2.ryy	2.ryy	2.ryy	2.ryy	.
4r	.	4c\	.	4ee\	.	4r	.	.	.	.	.	.
4r	.	4e\	.	4g/	.	4r	.	.	.	.	.	.
=32	=32	=32	=32	=32	=32	=32	=32	=32	=32	=32	=32	=32
4r	.	4d\	.	4.f#/	.	4r	.	2.ryy	2.ryy	2.ryy	2.ryy	.
4r	.	4c\	.	.	.	4r	.	.	.	.	.	.
.	.	.	.	8a/	.	.	.	.	.	.	.	.
16G\LL	.	4B\	.	4g/	.	16g/LL	.	.	.	.	.	.
16F#\	.	.	.	.	.	16f#/	.	.	.	.	.	.
16E\	.	.	.	.	.	16e/	.	.	.	.	.	.
16D\JJ	.	.	.	.	.	16d/JJ	.	.	.	.	.	.
=33	=33	=33	=33	=33	=33	=33	=33	=33	=33	=33	=33	=33
4C/	.	4r	.	4r	.	4c/	.	2.ryy	2.ryy	2.ryy	2.ryy	.
4r	.	4c\	.	4ee\	.	4r	.	.	.	.	.	.
4r	.	4e\	.	4g/	.	4r	.	.	.	.	.	.
=34	=34	=34	=34	=34	=34	=34	=34	=34	=34	=34	=34	=34
4r	.	4d\	.	4.f#/	.	4r	.	2.ryy	2.ryy	2.ryy	2.ryy	.
16D/LL	.	4c\	.	.	.	16d/LL	.	.	.	.	.	.
16C/	.	.	.	.	.	16c/	.	.	.	.	.	.
16BB/	.	.	.	(<8a/	.	16B/	.	.	.	.	.	.
16AA/JJ	.	.	.	.	.	16A/JJ	.	.	.	.	.	.
4GG/	.	4B\	.	4g/)	.	4G/	.	.	.	.	.	.
=35	=35	=35	=35	=35	=35	=35	=35	=35	=35	=35	=35	=35
!LO:TX:a:t=1	!	!	!	!	!	!LO:TX:a:t=1	!	!	!	!	!	!
2.r	.	4c\	.	8ee\L	.	2.r	.	2.ryy	2.ryy	2.ryy	2.ryy	.
.	.	.	.	16dd\L	.	.	.	.	.	.	.	.
.	.	.	.	16cc\JJ	.	.	.	.	.	.	.	.
.	.	4d\	.	4b\	.	.	.	.	.	.	.	.
.	.	4d\	.	4a\	.	.	.	.	.	.	.	.
!LO:LB:g=original	!	!	!	!	!	!	!	!	!	!	!	!
=36	=36	=36	=36	=36	=36	=36	=36	=36	=36	=36	=36	=36
.	.	.	.	8qqa/	.	.	.	.	.	.	.	.
4r	.	2G/	.	2g/	.	4r	.	2.ryy	2.ryy	2.ryy	2.ryy	.
16d\LL	.	.	.	.	.	16d/LL	.	.	.	.	.	.
16c\	.	.	.	.	.	16c/	.	.	.	.	.	.
16B\	.	.	.	.	.	16B/	.	.	.	.	.	.
16A\JJ	.	.	.	.	.	16A/JJ	.	.	.	.	.	.
!	!	!LO:TX:a:t=12&colon;	!	!LO:TX:a:t=12&colon;	!	!LO:TX:a:t=12&colon;	!	!	!	!	!	!
4G\	.	4r	.	4r	.	4G/	.	.	.	.	.	.
!	!	!LO:LB:g=original	!	!LO:LB:g=original	!	!LO:LB:g=original	!	!	!	!	!	!
=37||:|!|:	=37||:|!|:	=37||:|!|:	=37||:|!|:	=37||:|!|:	=37||:|!|:	=37||:|!|:	=37||	=37||	=37||	=37||	=37||	=37||
*>D	*	*>D	*	*>D	*	*>D	*	*>D	*>D	*>D	*>D	*
!LO:TX:a:t=1	!	!	!	!	!	!LO:TX:a:t=1	!	!	!	!	!	!
2.r	.	4.b\	.	4.dd\	.	2.r	.	2.ryy	2.ryy	2.ryy	2.ryy	.
.	.	8cc\	.	8ee\	.	.	.	.	.	.	.	.
.	.	4b\	.	4dd\	.	.	.	.	.	.	.	.
=38	=38	=38	=38	=38	=38	=38	=38	=38	=38	=38	=38	=38
4r	.	4dd\	.	4ffn\	.	4r	.	2.ryy	2.ryy	2.ryy	2.ryy	.
8.d\L	.	4r	.	4r	.	8.d/L	.	.	.	.	.	.
16c\K	.	.	.	.	.	16c/K	.	.	.	.	.	.
8.B\	.	4r	.	4r	.	8.B/	.	.	.	.	.	.
16A\Jk	.	.	.	.	.	16A/Jk	.	.	.	.	.	.
=39	=39	=39	=39	=39	=39	=39	=39	=39	=39	=39	=39	=39
4G#X\	.	4r	.	4r	.	4G#X/	.	2.ryy	2.ryy	2.ryy	2.ryy	.
4r	.	4G#X/	.	4ee\	.	4r	.	.	.	.	.	.
4r	.	4B/	.	4g#X/	.	4r	.	.	.	.	.	.
=40	=40	=40	=40	=40	=40	=40	=40	=40	=40	=40	=40	=40
!	!	!	!	!LO:SIC:v:s:t=8qqg#/	!	!	!	!	!	!	!	!
.	.	.	.	8qqg/	.	.	.	.	.	.	.	.
4r	.	4c\	.	4a/	.	4r	.	2.ryy	2.ryy	2.ryy	2.ryy	.
8.E\L	.	4r	.	4r	.	8.e/L	.	.	.	.	.	.
16D\K	.	.	.	.	.	16d/K	.	.	.	.	.	.
8.C\	.	4r	.	4r	.	8.c/	.	.	.	.	.	.
16BB\Jk	.	.	.	.	.	16B/Jk	.	.	.	.	.	.
!LO:LB:g=original	!	!	!	!	!	!	!	!	!	!	!	!
=41	=41	=41	=41	=41	=41	=41	=41	=41	=41	=41	=41	=41
!	!	!LO:TX:a:t=1	!	!LO:TX:a:t=1	!	!	!	!	!	!	!	!
4AA/	.	2.r	.	2.r	.	4A/	.	2.ryy	2.ryy	2.ryy	2.ryy	.
8.c\L	.	.	.	.	.	8.cc\L	.	.	.	.	.	.
16B\K	.	.	.	.	.	16b\K	.	.	.	.	.	.
8.A\	.	.	.	.	.	8.a\	.	.	.	.	.	.
16G\Jk	.	.	.	.	.	16g\Jk	.	.	.	.	.	.
=42	=42	=42	=42	=42	=42	=42	=42	=42	=42	=42	=42	=42
4F#\	.	4r	.	4r	.	4f#/	.	2.ryy	2.ryy	2.ryy	2.ryy	.
4r	.	4F#/	.	4dd\	.	4r	.	.	.	.	.	.
4r	.	4A/	.	4f#/	.	4r	.	.	.	.	.	.
=43	=43	=43	=43	=43	=43	=43	=43	=43	=43	=43	=43	=43
!LO:TX:a:t=1	!	!	!	!	!	!LO:TX:a:t=1	!	!	!	!	!	!
2.r	.	4B/	.	4g/	.	2.r	.	2.ryy	2.ryy	2.ryy	2.ryy	.
.	.	4g\	.	8bb\L	.	.	.	.	.	.	.	.
.	.	.	.	8gg\	.	.	.	.	.	.	.	.
.	.	4a\	.	8ff#\	.	.	.	.	.	.	.	.
.	.	.	.	8ee\J	.	.	.	.	.	.	.	.
!	!	!LO:LB:g=original	!	!	!	!LO:LB:g=original	!	!	!	!	!	!
=44	=44	=44	=44	=44	=44	=44	=44	=44	=44	=44	=44	=44
4r	.	4b\	.	4ee\	.	4r	.	2.ryy	2.ryy	2.ryy	2.ryy	.
16B\LL	.	4B/	.	4dd#X\	.	16B/LL	.	.	.	.	.	.
!	!	!	!	!	!	!LO:SIC:v:s:t=16c#/	!	!	!	!	!	!
16c#X\	.	.	.	.	.	16c/	.	.	.	.	.	.
16d#X\	.	.	.	.	.	16d#X/	.	.	.	.	.	.
!	!	!	!	!	!	!LO:SIC:v:s:t=16c#/	!	!	!	!	!	!
16c#X\JJ	.	.	.	.	.	16c/JJ	.	.	.	.	.	.
4B\	.	4r	.	4r	.	4B/	.	.	.	.	.	.
!	!	!	!	!LO:LB:g=original	!	!	!	!	!	!	!	!
=45	=45	=45	=45	=45	=45	=45	=45	=45	=45	=45	=45	=45
!LO:TX:a:t=1	!	!	!	!	!	!LO:TX:a:t=1	!	!	!	!	!	!
2.r	.	4.g\	.	4.b\	.	2.r	.	2.ryy	2.ryy	2.ryy	2.ryy	.
.	.	8a\	.	8cc\	.	.	.	.	.	.	.	.
.	.	4g\	.	4b\	.	.	.	.	.	.	.	.
=46	=46	=46	=46	=46	=46	=46	=46	=46	=46	=46	=46	=46
4r	.	4f#\	.	4a/	.	4r	.	2.ryy	2.ryy	2.ryy	2.ryy	.
8.A\L	.	4r	.	4r	.	8.a/L	.	.	.	.	.	.
16G\K	.	.	.	.	.	16g/K	.	.	.	.	.	.
8.F#\	.	4r	.	4r	.	8.f#/	.	.	.	.	.	.
16E\Jk	.	.	.	.	.	16e/Jk	.	.	.	.	.	.
!LO:LB:g=original	!	!	!	!	!	!	!	!	!	!	!	!
=47	=47	=47	=47	=47	=47	=47	=47	=47	=47	=47	=47	=47
4D#X\	.	4r	.	4r	.	4d#X/	.	2.ryy	2.ryy	2.ryy	2.ryy	.
4r	.	4a\	.	4ff#\	.	4r	.	.	.	.	.	.
4r	.	4f#\	.	4a/	.	4r	.	.	.	.	.	.
=48	=48	=48	=48	=48	=48	=48	=48	=48	=48	=48	=48	=48
4r	.	4e\	.	4g/	.	4r	.	2.ryy	2.ryy	2.ryy	2.ryy	.
8.B\L	.	4r	.	4r	.	8.b/L	.	.	.	.	.	.
16A\K	.	.	.	.	.	16a/K	.	.	.	.	.	.
8.G\	.	4r	.	4r	.	8.g/	.	.	.	.	.	.
16F#\Jk	.	.	.	.	.	16f#/Jk	.	.	.	.	.	.
=49	=49	=49	=49	=49	=49	=49	=49	=49	=49	=49	=49	=49
4E\	.	4r	.	4r	.	4e/	.	2.ryy	2.ryy	2.ryy	2.ryy	.
4r	.	4A/	.	4cc\	.	4r	.	.	.	.	.	.
4r	.	4c/	.	4e/	.	4r	.	.	.	.	.	.
!	!	!	!	!	!	!LO:LB:g=original	!	!	!	!	!	!
=50	=50	=50	=50	=50	=50	=50	=50	=50	=50	=50	=50	=50
4r	.	4B/	.	4.d#X/	.	4r	.	2.ryy	2.ryy	2.ryy	2.ryy	.
16B\LL	.	4A/	.	.	.	(<16b/LL	.	.	.	.	.	.
(>16A\	.	.	.	.	.	16a/)	.	.	.	.	.	.
16G\	.	.	.	8f#/	.	(<16g/	.	.	.	.	.	.
16F#\JJ)	.	.	.	.	.	16f#/JJ)	.	.	.	.	.	.
16E\LL	.	4G/	.	4e/	.	(<16e/LL	.	.	.	.	.	.
(>16D\	.	.	.	.	.	16d/)	.	.	.	.	.	.
16C\	.	.	.	.	.	(<16c/	.	.	.	.	.	.
16BB\JJ)	.	.	.	.	.	16B/JJ)	.	.	.	.	.	.
!	!	!LO:LB:g=original	!	!	!	!	!	!	!	!	!	!
=51	=51	=51	=51	=51	=51	=51	=51	=51	=51	=51	=51	=51
4AA/	.	4r	.	4r	.	4A/	.	2.ryy	2.ryy	2.ryy	2.ryy	.
4r	.	4A/	.	4cc\	.	4r	.	.	.	.	.	.
4r	.	4c/	.	4e/	.	4r	.	.	.	.	.	.
!LO:LB:g=original	!	!	!	!	!	!	!	!	!	!	!	!
=52	=52	=52	=52	=52	=52	=52	=52	=52	=52	=52	=52	=52
4r	.	4B/	.	(<4.d#X/	.	4r	.	2.ryy	2.ryy	2.ryy	2.ryy	.
16B\LL	.	4A/	.	.	.	16b/LL	.	.	.	.	.	.
(>16A\	.	.	.	.	.	16a/	.	.	.	.	.	.
16G\	.	.	.	8f#/)	.	16g/	.	.	.	.	.	.
16F#\JJ)	.	.	.	.	.	16f#/JJ	.	.	.	.	.	.
16E\LL	.	4G/	.	4e/	.	16e/LL	.	.	.	.	.	.
(>16D\	.	.	.	.	.	16d/	.	.	.	.	.	.
16C\	.	.	.	.	.	16c/	.	.	.	.	.	.
16BB\JJ)	.	.	.	.	.	16B/JJ	.	.	.	.	.	.
!	!	!	!	!LO:LB:g=original	!	!	!	!	!	!	!	!
=53	=53	=53	=53	=53	=53	=53	=53	=53	=53	=53	=53	=53
4AA/	.	4A/	.	8cc\L	.	4A/	.	2.ryy	2.ryy	2.ryy	2.ryy	.
.	.	.	.	16b\L	.	.	.	.	.	.	.	.
.	.	.	.	16a\JJ	.	.	.	.	.	.	.	.
4r	.	4B/	.	4g/	.	4r	.	.	.	.	.	.
4BB/	.	4B/	.	4f#/	.	4r	.	.	.	.	.	.
=54	=54	=54	=54	=54	=54	=54	=54	=54	=54	=54	=54	=54
4E\	.	2E/	.	2e/	.	4r	.	2.ryy	2.ryy	2.ryy	2.ryy	.
16B\LL	.	.	.	.	.	16b/LL	.	.	.	.	.	.
(>16A\	.	.	.	.	.	16a/	.	.	.	.	.	.
16G\	.	.	.	.	.	16g/	.	.	.	.	.	.
16F#\JJ)	.	.	.	.	.	16f#/JJ	.	.	.	.	.	.
!	!	!	!	!LO:TX:b:t=Volti&colon;	!	!LO:TX:b:t=Menuet&colon; Da Capo\n V L&colon;	!	!	!	!	!	!
!LO:TX:b:t=Menuett Da Capo&colon;\nV&colon; L&colon;	!	!LO:TX:b:t=Menuet Da Capo&colon;\nV&colon; L&colon;	!	!LO:TX:b:t=M D C	!	!	!	!	!	!	!	!
!LO:TX:b:t=18	!	!LO:TX:a:t=18&colon;	!	!LO:TX:a:t=18&colon;	!	!LO:TX:a:t=18&colon;	!	!	!	!	!	!
4E\	.	4r	.	4r	.	4e/	.	.	.	.	.	.
==;;	==;;	==;;	==;;	==;;	==;;	==;;	==	==	==	==	==	==
*-	*-	*-	*-	*-	*-	*-	*-	*-	*-	*-	*-	*-
!!!system-decoration: [(g1)][(g2)][(g3)]
!!!RDF**kern: > = above
!!!RDF**kern: < = below
!!!ENC: Marcin Jachim
!!!END: 2021-02-09
!!!EED: Jędrzej Mróz
!!!EEV: 2022-01-12
!!!YEC: Copyright 2022 Narodowy Instytut Fryderyka Chopina (https://polishscores.org)
!!!YEM: License CC-BY-4.0 (https://creativecommons.org/licenses/by/4.0)
